X:1
T:Transcendental Études
T:Transcendental Études
T:S. 139/4 "Mazeppa"
T:Franz Liszt
C:Franz Liszt
%%score { ( 1 7 8 ) | ( 2 4 5 ) | ( 3 6 ) }
L:1/8
Q:1/4=120
M:4/4
K:F
V:1 treble nm="Piano" snm="Pno."
V:7 treble 
V:8 treble 
V:2 bass 
V:4 bass 
V:5 bass 
V:3 bass 
V:6 bass 
V:1
"^Allegro" z2!ff!!8va(! !wedge![g^c'e'b'] z z2 !wedge![d^g=bf']!8va)! z | %1
 z2 !arpeggio!!wedge![A_e^fc'] z !wedge![=EB^cg] z !wedge![=B,=F^Gd] z | %2
 !wedge![^F,C_EA] z !wedge![G,^C=EB] z !wedge![^G,=B,=F] z !wedge![=F,G,D] z | %3
 !wedge![A,DFA] z z2 !wedge![Adfa] z z2 | !wedge![ga^c'e'a'] z z2 z4 | %5
[K:bass]"^Cadenza ad libitum" z!<(! (3A,,/B,,/^C,/!<)!(5:4:5F,/E,/D,/C,/B,,/!<(!(6:4:6A,,/B,,/C,/D,/E,/F,/!<)!(6:4:6B,/A,/G,/F,/E,/D,/!<(!C,/4D,/4E,/4F,/4G,/4A,/4B,/4^C/4!<)![K:treble](5:4:5F/E/D/^C/B,/ | %6
!<(! (6:4:6A,/B,/^C/D/E/F/!<)!(6:4:6B/A/G/F/E/D/!<(!C/4D/4E/4F/4G/4A/4B/4^c/4!<)!(5:4:5f/4e/4d/4c/4B/4!<(!(6:4:6A/4B/4c/4d/4e/4f/4!<)!(6:4:6b/4a/4g/4f/4e/4d/4!<(!c/4d/4e/4f/4g/4a/4b/4^c'/4!<)!!8va(!(5:4:5f'/4e'/4d'/4c'/4b/4 | %7
 (10:8:10a/4b/4^c'/4d'/4e'/4f'/4g'/4a'/4b'/4^c''/4(5:4:5f''/4e''/4d''/4c''/4b'/4(5:4:5a'/4g'/4f'/4e'/4d'/4(5:4:5c'/4b/4!8va)!a/4g/4f/4(5:4:5e/4d/4^c/4B/4A/4(5:4:5G/4F/4E/4D/4^C/4[I:staff +1](5:4:5B,/4A,/4G,/4F,/4E,/4(7:4:7D,/4^C,/4B,,/4A,,/4G,,/4F,,/4E,,/4 | %8
[Q:1/4=112]"^Allegro (-116)"[I:staff -1] !wedge![dfd']4 !wedge![dfd']2 x7/4 ([cc']/4 | %9
 !wedge![Beb]4) !wedge![Beb]2 x7/4 ([Bb]/4 | %10
 !wedge![Aea]2) x7/4 ([Aa]/4 !wedge![ege']2) x7/4 ([Gg]/4 | %11
 !wedge![FAf]2) x7/4 ([Aa]/4 !wedge![DFd]2) x2 | [cec']4 [cgc']2 x7/4 ([_B_b]/4 | %13
 !wedge![Afa]2) x7/4 ([cc']/4 !wedge![FAf]2) x2 | [e^ge']4 [e=be']2 x7/4 ([dd']/4 | %15
 !wedge![^ca^c']2) x7/4 ([ee']/4 !wedge![Aca]2) x3/2 ([Aa]/ | %16
 !wedge![g^c'g']4) [Aa]2 x7/4 ([Aa]/4 | !wedge![^f=c'^f']4) [Aa]2 x7/4 ([Aa]/4 | %18
 !wedge![f^gf']2) x7/4 ([ff']/4 !wedge![ege']2) x7/4 ([dd']/4 | %19
 !wedge![^ca^c']2) x7/4 ([ee']/4 !wedge![Aca]2) x2 | !wedge![G^cg]4 [A,A]2 x7/4 ([A,A]/4 | %21
 !wedge![^F=c^f]4) [A,A]2 x7/4 ([A,A]/4 | %22
 !wedge![F^Gf]2) x7/4 ([Ff]/4 !wedge![EGe]2) x7/4 ([Dd]/4 | z8) | [ea^c'e'] z!8va(! x2 x4 | %25
 (3:2:5[e'a'^c''e''] z =b'2 [e'a'c''e''] z (3:2:4b'2 [e'a'c''e''] z b'2 | %26
 !wedge![e'a'^c''e'']!8va)! z"^ten."[Q:1/2=80] !^!!fermata![Bb]2 [Aa] [Gg][Ff][Ee] (9:8:9[Dd][^C^c][Ee]!<(![=C=c][Ee][=B,=B][Ee][_B,_B][Ee]!<)! | %27
 [A,A] z"^ten." !^!!fermata![^c^c']2 [Bb] [Aa][Gg][Ff] (9:8:9[Ee][Gg][_E_e]!<(![Gg][Dd][Gg][^Cc][Gg][B,B]!<)! | %28
 !wedge![Gg]!wedge![A,A] !^![ee']2!<(! [dd'] [^c^c'][Bb][Aa]!<)!!8va(! (9:8:9[gg'][ff'][ee'][dd']!<(![cc'][bb'][aa'][gg'][ff']!<)! | %29
 [ee'][e'e''][d'd''][^c'^c''][bb'][aa'][bb'][gg'][bb'][ff'][gg'][ee'][gg'][dd'][ee']!8va)![^cc'][ee'][Bb] | %30
 (3[^c^c'][Aa][Bb] (3[Gg][Bb][Ff] (3[Gg][Ee][Gg] (3[Dd][Ee][^Cc] (3[Ee][B,B][Cc] (3AB^G | %31
 (3A=GA (3^FA=F (3AEA"^poco rallent." _EA CA ^CA || %32
[M:4/4] !wedge![dfd']4 !wedge![dfd']2 z x/ ([=c=c']/!ff! | !wedge![Beb]2) z x [Beb]2 z x/ ([Bb]/ | %34
 !wedge![Aea]2) z x/ ([Aa]/ !wedge![ege']2) z x/ ([Gg]/ | %35
 !wedge![FAf]2) z x/ ([Aa]/ !wedge![DFd]2) z x | [cec']2 z z [cgc']2 x3/2 ([_B_b]/ | %37
 !wedge![_Ac_a]2) z x/ ([cc']/ !wedge![FAf]2) x z | [_eg_e']2 z x [ebe']2 z x/ ([_d_d']/ | %39
 !wedge![c_ac']2) z x/ ([_e_e']/ !wedge![_Aca]2) x z | %40
!f! !wedge![f=bf']2 z z !wedge![fbf']2 x3/2 [ff']/ | !wedge![_ac'_a']2 x2 !wedge![_ea_e']2 x2 | %42
 !wedge![f=bf']2 x2 !wedge![fbf']2 x3/2 [ff']/ | [_ac'_a']2 x2 [^g^g']2 x3/2 [gg']/ | %44
 [aa']2 x2 [ff']2 x2 | [dd']2 x2 [Aa]2 x2 | !^![Bb]2 x2 !^![Gg]2 x2 | %47
 !^![=E=e]2 x2 !^![Aa]2 x3/2 [A,A]/ | [Dd]2 x2 x2!8va(! x3/2!8va)! [Dd]/ | %49
 !wedge![c^fc']4 x2!8va(! x3/2!8va)! [Dd]/ | !wedge![=B=f=b]4 x2!8va(! x3/2!8va)! [Dd]/ | %51
 [_B_b]2 x3/2 [Bb]/ [Aa]2 x3/2 [Gg]/ | [D^Fd]2 x2 x2!8va(! x3/2!8va)! [Dd]/ | %53
 !wedge![c^fc']4 x2!8va(! x3/2!8va)! [Dd]/ | !wedge![=B=f=b]4 x2!8va(! x3/2!8va)! [Dd]/ | %55
 [_B_b]2 x3/2 [Bb]/ [Aa]2 x3/2 [Gg]/ | (3:2:4[D^Fd] z!8va(! b'2 g'2 (3:2:4e'2 ^c'!8va)! z b2 | %57
 (3:2:4[d^fd'] z b2 g2 (3:2:4e2 ^c z B2 | (3:2:5[D,^F,D] z e2 [^FA^f] z (3:2:4b2 d' z!8va(! e'2 | %59
 (3:2:5^f' z b'2 d'' z (3:2:4b'2 d'' z b'2 | [d'^f'd''][bb']!8va)! x2 [dd'][Bb] x2 [Dd][B,B] x2 | %61
[K:bass] [D,D][I:staff +1][C,,C,][I:staff -1] [D,D][I:staff +1][=B,,,=B,,][I:staff -1] [D,D][I:staff +1][_B,,,_B,,][I:staff -1] [D,D][I:staff +1][G,,,G,,][I:staff -1] [D,D][I:staff +1][^G,,,^G,,][I:staff -1] [D,D][I:staff +1][A,,,A,,] | %62
 [D,,,D,,]/[I:staff -1][_E,,_E,]/[I:staff +1][=E,,,=E,,]/[I:staff -1][F,,F,]/[I:staff +1][^F,,,^F,,]/[I:staff -1][G,,G,]/[I:staff +1][^G,,,^G,,]/[I:staff -1][A,,A,]/[I:staff +1][B,,,B,,]/[I:staff -1][=B,,=B,]/[I:staff +1][C,,C,]/[I:staff -1][^C,^C]/[I:staff +1][D,,D,]/[I:staff -1][E,_E]/[I:staff +1][E,,=E,]/[I:staff -1][F,F]/[I:staff +1][F,,^F,]/[I:staff -1][G,G]/[I:staff +1][G,,^G,]/[I:staff -1][A,A]/[I:staff +1][B,,B,]/[I:staff -1][K:treble][=B,=B]/[I:staff +1][C,C]/[I:staff -1][^C^c]/[I:staff +1][D,D]/!<(![I:staff -1][_E_e]/[I:staff +1][=E,=E]/[I:staff -1][Ff]/[I:staff +1][F,^F]/[I:staff -1][Gg]/[I:staff +1][G,^G]/[I:staff -1][Aa]/ | %63
[I:staff +1] [B,B]/[I:staff -1][=B=b]/[I:staff +1][Cc]/[I:staff -1][^c^c']/!<)![I:staff +1][Dd]/[I:staff -1][cc']/[I:staff +1][=C=c]/[I:staff -1][Bb]/[I:staff +1][_B,_B]/[I:staff -1][Aa]/[I:staff +1][^G,^G]/[I:staff -1][=G=g]/[I:staff +1][^F,^F]/[I:staff -1][=F=f]/[I:staff +1][E,E]/[I:staff -1][_E_e]/[I:staff +1][D,D]/[I:staff -1][^C^c]/[I:staff +1][=C,=C]/[I:staff -1][=B,=B]/[I:staff +1][_B,,_B,]/[I:staff -1][A,A]/[I:staff +1][^G,,^G,]/[I:staff -1][=G,=G]/[K:bass][I:staff +1][^F,,^F,]/[I:staff -1][=F,=F]/[I:staff +1][E,,E,]/[I:staff -1][_E,_E]/[I:staff +1][D,,D,]/[I:staff -1][^C,^C]/[I:staff +1][=C,,=C,]/[I:staff -1][=B,,=B,]/[I:staff +1][_B,,,_B,,]/[I:staff -1][A,,A,]/[I:staff +1][^G,,,G,,]/[I:staff -1][=G,,=G,]/[I:staff +1][^F,,,F,,]/[I:staff -1][=F,,=F,]/[I:staff +1][E,,,E,,]/[I:staff -1][_E,,_E,]/ !fermata!z4 || %64
[K:Bb][K:treble][Q:1/4=112]"^(Lo stesso tempo)" (6:4:6z [DF][Bd][df][bd']!8va(![d'f'](6:4:6[b'd''][d'f']!8va)![bd'][df][Bd][DF] | %65
 (6:4:6z [DF][Bd][df][bd']!8va(![d'f'](6:4:6[b'd''][d'f']!8va)![bd'][df][Bd][DF] | %66
 (6:4:6z [E_G][ce][e_g][c'e']!8va(![e'_g'](6:4:6[c''e''][e'g']!8va)![c'e'][eg][ce][EG] | %67
 (6:4:6z [DF][Bd][df][bd']!8va(![d'f'](6:4:6[b'd''][d'f']!8va)![bd'][df][Bd][DF] | %68
 (6:4:6z [DG][Bd][dg][bd']!8va(![d'g'](6:4:6[b'd''][d'g']!8va)![bd'][dg][Bd][DG] | %69
 (6:4:6z [DG][Bd][dg][bd']!8va(![d'g'](6:4:6[b'd''][d'g']!8va)![bd'][dg][Bd][DG] | %70
 (6:4:6z [=EG][B=e][eg][b=e']!8va(![e'g'](6:4:6[b'=e''][e'g']!8va)![be'][eg][Be]G | %71
 (6:4:6z [FA][cf][fa][c'f']!8va(![f'a'](6:4:6[c''f''][f'a']!8va)![c'f'][fa][cf][FA] | %72
 (6:4:6z [F_A][_df][f_a][_d'f']!8va(![f'_a'](6:4:6[_d''f''][f'a']!8va)![d'f'][fa][df]A | %73
 (6:4:6z [E_A][_de][e_a][_d'e']!8va(![e'_a'](6:4:6[c''e''][e'a']!8va)![c'e'][ea][ce][EA] | %74
 (6:4:6z [EG][ce][eg][c'e']!8va(![e'g'](6:4:6[c''e''][e'g']!8va)![c'e'][eg][ce]G | %75
 (6:4:6z [DG][cd][dg][c'd']!8va(![d'g'](6:4:6[=b'd''][d'g']!8va)![=bd'][dg][=Bd][DG] | %76
 (6:4:6z [DF][_Bd][df][bd']!8va(![d'f'](6:4:6[b'd''][d'f']!8va)![bd'][df][Bd][DF] | %77
 (6:4:6z [DG][Bd][dg][bd']!8va(![d'g'](6:4:6[b'd''][d'g']!8va)![bd'][dg][Bd][DG] | %78
 (3z [EG]d (3z [ce][gc'] (3z!8va(! [be'][g'b'] (3z [c'e'][g'c'']!8va)! | %79
 (6:4:6z [D^F][Ad][d^f][ad']!8va(![d'^f'](6:4:6[a'd''][d'f'] [ad'][df]!8va)! [ad'][df] | %80
 [Ad][D^F] [Ad][DF][I:staff +1] [A,D][D,^F,][I:staff -1][K:bass] [A,D][D,^F,][I:staff +1] D,,,[I:staff -1] x2 | %81
[K:treble] x4 || (6:4:6z [dd'][dd'][dd'][dd'][dd'] | %83
"^Il canto espressivo ed appassionato assai" [dd']4 [dd']2 x [cc'] | [Bb]4 [Bb]2 x [Bb] | %85
 [Aa]2 x [Aa] [_g_g']2 x [Aa] | [cc']4 [Bb]2 x2 | [dd']4 [dd']2 x [cc'] | [Bb]4 x2 x [Bb] | %89
 [_d_d']2 x [cc']!8va(! [bb']2 x [=e=e'] | [ff']4 x4 | [ff']4 [ff']2 x [ff'] | %92
 !>![_a_a']4!>(! [ee']2 x2!>)! | [^g^g']4 [gg']2 x [gg'] | !>![=b=b']4 [^f^f']2 x2!8va)! | %95
 (6:4:12z z"^piano" [^C=B][DB][^DB][=EB][^EB][^FB][^^FB][^GB][AB][^AB] | %96
(6:4:12=B[Bc][B^c][B^^c][B^d][B=e][B^e][B^f][B^^f][B^g][Ba][B^a] | %97
 (6:4:12=b[cb][^cb][db][^db][=eb][^eb][^fb][^^fb][^gb][ab][^ab] | %98
!8va(! (6:4:12=b[bc'][b^c'][b^^c'][b^d'][b=e'][b^e'][b^f'][b^^f'][b^g'][ba'][b^a'] | %99
 (6:4:12[=b=b'][c'b'][^c'b'][d'b'][^d'b'][=e'b'] z [=d'e'b'][d'f'b'][d'^f'b'][d'g'b'][d'_a'b'] | %100
 (6:4:12z [g'c''=e''][^f'=b'^d''][=f'_b'=d''][=e'a'^c''][_e'_a'=c''][d'g'=b'][^c'^f'^a'][=c'=f'=a'][=b=e'^g'][_b_e'=g'][ad'^f'] | %101
(6:4:12[_a_d'=f'][gc'=e'][^f=b^d'][=f_b=d'][=e=a^c'][_e_a=c']!8va)! z [dg=b][^c^f^a][=c=f=a][=Bd_a][Bdg] | %102
 (6:4:12z [gc'=e'][^f=b^d'][=f_b=d'][=ea^c'][_e_a=c'][dg=b][^c^f^a][=c=f=a][=B=e^g][_B_e=g][Ad^f] | %103
 (6:4:12[_A_d=f][c=e][_c_e][B=d][=A_d][_A=c][G=B][_G_B][F=A][_F_A][E=G][=D_G] | %104
 (6:4:12[_DF][C=E][_C_E][B,=D][A,_D][_A,=C][I:staff +1][G,=B,][_G,_B,][F,=A,][_F,_A,][E,=G,][D,_G,] | %105
[I:staff -1] x8 | x8 | x4[K:bass] (6:4:5[_D,,=F,,][=D,,_G,,][E,,=G,,] _A,,2 G,,- | %108
 [=E,,G,,]2"^stringendo" [C,C]2 [_D,_D]2 [=D,=D]2 | [E,E]2 [=E,=E]2 [^E,^E]2!<(! [^F,^F]2 | %110
[K:treble] [G,G]2 [^G,^G]2 [A,A]2 [_B,B]2 | [=B,=B]2 [Cc]2 [^C^c]!<)! z [_Bb]2- | %112
 (6:4:11[Bb]2 [Aa] [Gg][Ff][=E=e] [Dd][^C^c][Ee]!<(! [=C=c][Ee][=B,=B] | %113
 (3[=E=e][_B,_B][Ee] [A,A]!<)! z (6:4:5!^![^c^c']2 [Bb] [Aa][Gg][Ff] | %114
 (9:6:9[=E=e][Gg][_E_e]!<(! [Gg][Dd][Gg] [^C^c][Gg][B,B] !wedge![Gg]!wedge![A,A]!<)! | %115
 (3:2:2!^![=e=e']2!<(! [dd'] (3[^c^c'][Bb][Aa]!<)!!8va(! (6:4:6[gg']!<(![ff'][ee'][dd'][cc'][bb']!<)! | %116
 (3[aa'][gg'][ff'] (6:4:6[=e=e'][e'=e''][d'd''][^c'^c''][bb'][aa'] (3[bb'][gg'][bb'] (3[ff'][gg'][ee'] (3[gg'][dd'][ee']!8va)! | %117
 (3[^c^c'][=e=e'][Bb] (3[cc'][Aa][Bb] (3[Gg][Bb][Ff] (3[Gg][=Ee][Gg] (3[Dd][Ee][^Cc] (3[Ee][B,B][Cc] (3[A,A][B,B][^G,^G] (3[A,A]=GA (3^FA=F"^poco rallentando" (3AEA _EA =CA ^CA || %118
[K:F][M:6/8][Q:1/4=120]"^Animato"!mp! !wedge![dfd']2"^leggiero" x !wedge![dfd']2 x/ [=c=c']/ | %119
 !wedge![Beb]2 x !wedge![Beb]2 x/ [Bb]/ | !wedge![Aea]2 x/ [Aa]/ !wedge![ege']2 x/ [Gg]/ | %121
 !wedge![FAf]2 x/ [Aa]/ !wedge![DFd]2 x | !wedge![cec']2 x !wedge![cgc']2 x/ [_B_b]/ | %123
 !wedge![Aga]2 x/ [cc']/ !wedge![FAf]2 x | !wedge![e^ge']2 x !wedge![e=be']2 x/ [=d=d']/ | %125
 !wedge![^ca^c']2 x/ [ee']/ !wedge![Aca]2 x/ [Aa]/ | !>![g^c'g']2 x !wedge![Aa]2 x/ [Aa]/ | %127
 !>![^f=c'^f']2 x !wedge![Aa]2 x/ [Aa]/ | !wedge![=f^g=f']2 x/ [ff']/ !wedge![ege']2 x/ [=d=d']/ | %129
 !wedge![^ca^c']2 x/ [ee']/ !wedge![Aca]2 x/ [A,A]/ | !wedge![G^cg]2 x !wedge![A,A]2 x/ [A,A]/ | %131
 !wedge![^Fc^f]2 x !wedge![A,A]2 x/ [A,A]/ | !wedge![=F^G=f]2 x/ [Ff]/ !wedge![EGe]2 x/ [Dd]/ | %133
 [A,^CA][I:staff +1] [B,,G,]/!<(![I:staff -1][E^c]/[I:staff +1] [^C,B,]/[I:staff -1][Ge]/[I:staff +1] [E,^C]/[I:staff -1][Bg]/[I:staff +1] [G,E]/[I:staff -1][cb]/!<)! !wedge![=Bf^g=b] | %134
 !wedge![ea^c'e'][I:staff +1] [_B,G]/!<(!!8va(![I:staff -1][ec']/!8va)![I:staff +1] [^CB]/!8va(![I:staff -1][ge']/!8va)![I:staff +1] [E^c]/!8va(![I:staff -1][bg']/!8va)![I:staff +1] [Ge]/!8va(![I:staff -1][c'b']/!<)!!8va)!!8va(! !wedge![=bf'^g'=b'] | %135
 !wedge![e'a'^c''e''] z/ [=bf'^g'=b']/.[e'a'c''e''] .[bf'g'b'].[e'a'c''e''].[bf'g'b'] | %136
 .[e'a'^c''e''] z/ [=bf'^g'=b']/.[e'a'c''e''] .[bf'g'b'].[e'a'c''e''].[bf'g'b'] | %137
 .[e'a'^c''e'']!8va)! ([^G^g]/!<(![Aa]/.[Bb]) ([Aa]/[Bb]/.[=B=b]) ([_B_b]/[=B=b]/!<)! | %138
.[cc']) ([Aa]/[Bb]/.[=B=b])!<(! ([_B_b]/[=B=b]/.[cc']) ([Bb]/[cc']/ | %139
.[^c^c'])!<)! ([Bb]/[=B=b]/.[=c=c']) ([Bb]/[cc']/.[^c^c']) ([^B^b]/[cc']/) || %140
[M:2/4][Q:1/4=120]"^Allegro deciso" !wedge![dd'] x !wedge![dd']x/[=c=c']/ | %141
 !wedge![Bb] x !wedge![Bb]x/[Bb]/ | !wedge![Aa]x/[Aa]/ !wedge![ee']x/[Gg]/ | %143
 !wedge![^F^f]x/[Aa]/ !wedge![Dd] x | !wedge![^c^c'] x [cc']x/[=B=b]/ | [Aa] x [^F^f]x/[Aa]/ | %146
 [ee'] x [ee']x/[dd']/ | [^c^c'] x [Aa] x/ [Aa]/ | [^f^b^f'] x [fbf']x/[fbf']/ | %149
 [a^c'a'] x [eae'] x | [_gc'_g'] x [gc'g']x/[gc'g']/ | [bd'b'] x [fbf'] x | %152
 [g^c'g'] x [gc'g']x/[gc'g']/ | [=b^d'=b'] x [bb']x/[bb']/ | [c'c''] x [^c'^c'']x/[c'c'']/ | %155
 [d'd''] x [aa'] x | [ff'] x [dd'] x | [bb'] x [ff'] x | [dd'] x [Bb] x | !^![_e_e']2 [Bb]2 | %160
 !^![_e_e']2 [Bb]2 | [Aa]2 [Ff]2 | [Ee]2 [Aa]2 | %163
[Q:1/4=80] (6:4:6D/ D/d/d/d'/!8va(!d'/!ff!(6:4:6d''/d'/!8va)!d'/d/d/D/ | %164
 (6:4:6z/ [D^F]/[cd]/[d^f]/[c'd']/!8va(![d'^f']/(6:4:6[c''d'']/[d'f']/!8va)![c'd']/[df]/[cd]/[DF]/ | %165
 (6:4:6z/ [D=F]/[=Bd]/[d=f]/[=bd']/!8va(![d'f']/(6:4:6[=b'd'']/[d'f']/!8va)![bd']/[df]/[Bd]/[DF]/ | %166
 (6:4:6z/ [DE]/[_Bd]/[de]/[bd']/!8va(![d'e']/(6:4:6[b'd'']/[d'e']/!8va)![bd']/[de]/[Bd]/[DE]/ | %167
 (6:4:6z/ [D^F]/[Ad]/[d^f]/[ad']/!8va(![d'^f']/(6:4:6[a'd'']/[d'f']/!8va)![ad']/[df]/[Ad]/[DF]/ | %168
 (6:4:6z/ [C_E]/[^Fc]/[c_e]/[^fc']/!8va(![c'_e']/(6:4:6[^f'c'']/[c'e']/!8va)![fc']/[ce]/[Fc]/[CE]/ | %169
 (6:4:6z/ [=B,D]/[=F=B]/[Bd]/[f=b]/!8va(![bd']/(6:4:6[f'=b']/[bd']/!8va)![fb]/[Bd]/[FB]/[B,D]/ | %170
 (6:4:6[_B,^C]/[EB]/[B^c]/[eb]/!8va(![b^c']/[e'b']/!8va)! (6:4:6[G,B,]/[CG]/[GB]/[cg]/!8va(![gb]/[c'g']/!8va)! | %171
 !wedge!D!8va(! b' g' e'!8va)! | !wedge!^c' [Bb]/[^ce]/ [Aa]/[ce]/ [Gg]/[Bc]/ | %173
 !wedge![d^fd'] b g e | !wedge!^c [B,B]/[^CE]/ [A,A]/[CE]/ [G,G]/[B,C]/ | %175
 !wedge![D^Fd] [EB^ce]/[EBce]/ !wedge![FAd^f] [Bceb]/[Bceb]/ | %176
 !wedge![d^fad']!8va(! [eb^c'e']/[ebc'e']/ !wedge![fad'^f'] [bc'e'b']/[bc'e'b']/ | %177
 !wedge![d'^f'd''] [b^c'e'b']/[bc'e'b']/ !wedge![d'f'd''] [bc'e'b']/[bc'e'b']/ | %178
 [d'^f'd''] [b^c'e'b'] z [bc'e'b'] | z !>![b^c'e'b'] !>![f^g=bf']!8va)! !>![c_e^f=c'] | %180
 !>![GB^cg] !>![DF^Gd] !>![A,C_EA] !>![B,^C=EB] | %181
 z2 !fermata!F2- F!<(!(^CD>E)!<)!{/!fermata!E} !>!!fermata!G3 F (3(.E2 .D2 .C2)[K:bass] (3=C2 _C2 _B,2 | %182
[Q:1/4=80]"^Più Moderato\n(non piano)" (B,4 | B,4 | _E4 | _E7/2 [DF]/) |[M:4/4] [DF] z z2 z4 | %187
 z4[K:treble]!p!!p! !wedge![_DF] z z3/2 [=DF]/ | !wedge![DF] z z2 z4 | %189
 z4!pp! !wedge![_DF] z z3/2 [=DF]/ | [DF] z z2 z4 | z2 z!<(! (^G,!<)! F3) G, | z8 | !fermata!z8 | %194
 z4 z/!<(! F/E/D/^C/=C/=B,/_B,/!<)! ||[K:D]"_ten." z2 z3/2 [Adfa]/4[Adfa]/4 [Adfa]3 x | %196
"_ten." z2 z3/2 [dfbd']/4[dfbd']/4 [dfbd']3 x | %197
 z3/2!8va(! [f^ac'f']/4[fac'f']/4 !wedge![fac'f']!8va)! z z3/2!8va(! [=ac'e'a']/4[ac'e'a']/4 !wedge![ac'e'a']!8va)! x | %198
"_ten." z2 z3/2[Q:1/4=160]"^Vivace"!8va(! [ad'f'a']/[ad'f'a']z/[d'f'a'd'']/[d'f'a'd'']z/[fd'f']/ | %199
 [fd'f']z/[ad'f'a']/[ad'f'a']z/[dfad']/ [dfad']z/[fd'f']/[fd'f']!8va)!z/[Adfa]/ | %200
 [Adfa]z/[dfad']/[dfad']z/[Fdf]/ [Fdf]z/[Adfa]/[Adfa]z/[DFAd]/ | %201
 [DFAd]z/[Fdf]/[Fdf]z/[A,DFA]/ [A,DFA]z/[DFAd]/[DFAd]z/[DF]/ | %202
 [DF]z/[DFA]/[DFA] z/[K:bass] [D,F,A,D]/ [D,F,A,D][D,G,_B,D][D,F,A,D][D,G,B,D] | %203
 [D,F,A,D][D,G,_B,D][D,F,A,D][D,G,B,D] [D,F,A,D][D,G,B,D][D,F,A,D][D,G,B,D] | %204
 [D,F,A,D]2[K:treble] [DFAd]2 [dfad']2!8va(! [d'f'a'd'']2!8va)! | !fermata!D8 |] %206
V:2
 z2[K:treble] !arpeggio!!wedge![^CGBe] z z2 !arpeggio!!wedge![^G,DF=B] z | %1
 z2[K:bass] !wedge![_E,A,C^F] z !arpeggio!!wedge![B,,=E,G,^C] z !arpeggio!!wedge![=F,,=B,,D,^G,] z | %2
 !arpeggio!!wedge![C,,^F,,A,,_E,] z !arpeggio!!wedge![^C,,G,,B,,=E,] z !arpeggio!!wedge![D,,^G,,=B,,=F,] z !arpeggio!!wedge![_B,,,=F,,G,,D,] z | %3
 !arpeggio!!wedge![A,,,D,,F,,A,,] z z2 !wedge![A,,D,F,A,] z z2 | %4
[K:treble] !wedge![A,^CEA] z z2 z4 | %5
[K:bass] z!p! (3A,,,/B,,,/^C,,/(5:4:5F,,/E,,/D,,/C,,/B,,,/(6:4:6A,,,/B,,,/C,,/D,,/E,,/F,,/(6:4:6B,,/A,,/G,,/F,,/E,,/D,,/C,,/4D,,/4E,,/4F,,/4G,,/4A,,/4B,,/4^C,/4(5:4:5F,/E,/D,/C,/B,,/ | %6
"_cresc." (6:4:6A,,/B,,/^C,/D,/E,/F,/(6:4:6B,/A,/G,/F,/E,/D,/C,/4D,/4E,/4F,/4G,/4A,/4B,/4^C/4(5:4:5F/4E/4D/4C/4B,/4(6:4:6A,/4B,/4C/4D/4E/4F/4[K:treble](6:4:6B/4A/4G/4F/4E/4D/4C/4D/4E/4F/4G/4A/4B/4^c/4(5:4:5f/4e/4d/4c/4B/4 | %7
 (10:8:10A/4B/4^c/4d/4e/4f/4g/4a/4b/4^c'/4"_rinf."(5:4:5f'/4e'/4d'/4c'/4b/4(5:4:5a/4g/4f/4e/4d/4(5:4:5c/4B/4A/4G/4F/4(5:4:5E/4D/4^C/4[K:bass]B,/4A,/4(5:4:5G,/4F,/4E,/4D,/4^C,/4(5:4:5B,,/4A,,/4G,,/4F,,/4E,,/4(7:4:4D,,/4^C,,/4B,,,/4 A,,, | %8
"^sempre fortissimo e con strepito" z"_m.s." [E,^G,]/[F,A,]/[K:treble]"_m.d."!<(! [^CE]/[DF]/"_m.s." [E^G]/[FA]/!<)! z[K:bass] [E,G,]/!<(![F,A,]/[K:treble] [CE]/[DF]/ [EG]/[FA]/!<)! | %9
 z[K:bass] [^F,A,]/[G,B,]/[K:treble]!<(! [^D^F]/[EG]/ [FA]/[GB]/!<)! z[K:bass] [F,A,]/!<(![G,B,]/[K:treble] [DF]/[EG]/ [FA]/[GB]/!<)! | %10
[K:bass] z [^D,^F,]/[E,G,]/[K:treble] [=C^D]/[^CE]/"^simile" [D^F]/[EG]/ z[K:bass] [D,F,]/[E,G,]/[K:treble] [=CD]/[^CE]/ [DF]/[EG]/ | %11
 z[K:bass] [E,^G,]/[F,A,]/[K:treble] [^CE]/[DF]/ [E^G]/[FA]/ z[K:bass] [E,G,]/[F,A,]/[K:treble] [CE]/[DF]/ [EG]/[FA]/ | %12
 z[K:bass] [^F,=B,]/[G,C]/[K:treble] [=B,^D]/[CE]/ [^F=B]/[Gc]/ z[K:bass] [F,B,]/[G,C]/[K:treble] [B,D]/[CE]/ [DF]/[EG]/ | %13
 z[K:bass] [^G,=B,]/[A,C]/[K:treble] [=B,E]/[CF]/ [^G=B]/[Ac]/ z[K:bass] [G,B,]/[A,C]/[K:treble] [B,E]/[CF]/ [EG]/[FA]/ | %14
 z[K:bass] [=G,^A,]/[^G,B,]/[K:treble] [^D=G]/[E^G]/ [=G^A]/[^G=B]/ z[K:bass] [=G,A,]/[^G,B,]/[K:treble] [D=G]/[E^G]/ [=GA]/[^GB]/ | %15
 z [^B,^D]/[^CE]/ [^G^B]/[A^c]/ [B^d]/[ce]/ z [B,D]/[CE]/ [GB]/[Ac]/ [Bd]/[ce]/ | %16
 z [^D^F]/[EG]/ [^B^d]/[^ce]/ [d^f]/[eg]/ z [DF]/[EG]/ [Bd]/[ce]/ [df]/[eg]/ | %17
 z [DF]/[_E^F]/ [=Bd]/[c_e]/ [d=f]/[e^f]/ z [D=F]/[E^F]/ [Bd]/[ce]/ [d=f]/[e^f]/ | %18
 z [^CE]/[DF]/ [G^A]/[^G=B]/ [^ce]/[df]/ z [=G,^A,]/[^G,=B,]/ [^D=G]/[E^G]/ [=GA]/[^GB]/ | %19
 z [^B,^D]/[^CE]/ [^G^B]/[A^c]/ [B^d]/[ce]/ z [^G,B,]/[A,C]/ [B,D]/[CE]/ [DG]/[EA]/ | %20
 z[K:bass] [^D,^F,]/[E,G,]/[K:treble] [^B,^D]/[^CE]/ [D^F]/[EG]/ z[K:bass] [D,F,]/[E,G,]/[K:treble] [B,D]/[CE]/ [DF]/[EG]/ | %21
[K:bass] z [D,=F,]/[_E,^F,]/[K:treble] [=B,D]/[C_E]/ [D=F]/[E^F]/ z[K:bass] [D,=F,]/[E,^F,]/[K:treble] [B,D]/[CE]/ [D=F]/[E^F]/ | %22
[K:bass] z [^C,E,]/[D,F,]/ [=G,^A,]/[^G,=B,]/ [^CE]/[DF]/ z [C,E,]/[D,F,]/ [=A,C]/[_B,D]/ [=G,^D]/[^G,E]/ | %23
[K:treble] ([A,^CA] z) x2 x4 | %24
[K:bass] (3:2:16[A,,E,A,] z[K:treble] (3G^GA(3B=Bc (3:2:8(3^cd^d(3e=dc [D^GBf] z | %25
 (3:2:6[A,^CEA] z[K:bass] [D,F,^G,D] z [A,,^C,E,A,] z (3:2:6[D,,F,,^G,,D,] z [A,,,^C,,E,,A,,] z [D,,F,,G,,D,] z | %26
 !wedge![A,,,^C,,E,,A,,] z"^ten." !^!!fermata![B,,B,]2 [A,,A,] [G,,G,][F,,F,][E,,E,] (9:8:9[D,,D,][C,,^C,][E,,E,][=C,,=C,][E,,E,][=B,,,=B,,][E,,E,][_B,,,_B,,][E,,E,] | %27
 [A,,,A,,] z"^ten." !^!!fermata![^C,^C]2 [B,,B,] [A,,A,][G,,G,][F,,F,] (9:8:9[E,,E,][G,,G,][_E,,_E,][G,,G,][D,,D,][G,,G,][^C,,C,][G,,G,][B,,,B,,] | %28
 !wedge![G,,G,]!wedge![A,,,A,,] !^![E,E]2 [D,D] [^C,^C][B,,B,][A,,A,] (9:8:9[G,G][F,F][E,E][D,D][C,C][B,B][A,A][G,G][F,F] | %29
"^il più forte possible" [E,E][K:treble][Ee][Dd][^C^c][B,B][A,A][B,B][G,G][B,B][K:bass] [F,F][G,G][E,E][G,G][D,D][E,E][^C,^C][E,E][B,,B,] | %30
 x8 x2 (3A,B,^G, | (3A,=G,A, (3^F,A,=F, (3A,E,A, _E,A, C,A, ^C,A, || %32
[M:4/4] (3z [E,^G,][F,A,][I:staff -1] (3[^CE][DF]!<(![I:staff +1] (D,,-!<)!(3!wedge![D,,A,,D,]) [E,G,][F,A,][I:staff -1] (3[CE][DF]!<(![I:staff +1] (D,,-!<)! | %33
(3!wedge![D,,G,,D,]) [^F,A,][G,B,][I:staff -1] (3[^D^F][EG]!<(![I:staff +1] (D,,-!<)!(3!wedge![D,,G,,D,]) [F,A,][G,B,][I:staff -1] (3[DF][EG]!<(![I:staff +1] (^C,,-!<)! | %34
(3!wedge![C,,A,,^C,]) [^D,^F,][E,G,][I:staff -1] (3[^B,^D][^CE]!<(![I:staff +1] (A,,,!<)!(3!wedge![^C,,A,,]) [D,F,][E,G,][I:staff -1] (3[B,D][CE][I:staff +1] =D,,- | %35
 (3[D,,A,,D,] [E,^G,][F,A,][I:staff -1] (3[^CE][DF][I:staff +1] D,,-(3!wedge![D,,A,,D,] [E,G,][F,A,][I:staff -1] (3[CE][DF][I:staff +1] =C,,- | %36
(3[C,,G,,C,] [^D,^F,][E,G,][I:staff -1] (3[=B,^D][CE][I:staff +1] E,,-(3[E,,C,E,] [F,=B,][G,C][I:staff -1] (3[D^F][EG][I:staff +1] =F,,- | %37
 (3[F,,C,F,] [G,=B,][_A,C][I:staff -1] (3[EG][FA][I:staff +1] F,,-(3[F,,C,F,] [G,B,][A,C][I:staff -1] (3[EG][FA][I:staff +1] _E,,- | %38
 (3[E,,B,,_E,] [^F,A,][G,B,][I:staff -1] (3[D^F][_EG][I:staff +1] G,,-(3[G,,E,G,] [A,D][B,_E][I:staff -1] (3[FA][GB][I:staff +1] _A,,- | %39
(3[A,,_E,_A,] [=B,D][C_E][I:staff -1] (3[G=B][_Ac][I:staff +1] _A,,-(3[A,,E,A,] [B,D][CE][I:staff -1] (3[GB][Ac][I:staff +1] A,,- | %40
 (3[A,,=D,_A,] [^CE][DF][I:staff -1] (3[^A^c][=Bd][I:staff +1] _A,,-(3[A,,D,A,] [CE][DF][I:staff -1] (3[Ac][Bd][I:staff +1] A,,- | %41
 (3[A,,_E,_A,] [=B,D][C_E][I:staff -1] (3[G=B][_Ac][I:staff +1] _A,,-(3[A,,C,A,] [B,D][CE][I:staff -1] (3[GB][Ac][I:staff +1] A,,- | %42
(3[A,,D,_A,] [^CE][DF][I:staff -1] (3[^A^c][=Bd][I:staff +1] _A,,-(3[A,,D,A,] [CE][DF][I:staff -1] (3[Ac][Bd][I:staff +1] A,,- | %43
(3[A,,_E,_A,] [=B,D][C_E][I:staff -1] (3[G=B][_Ac][I:staff +1] ^G,,-"^cresc."(3[G,,^G,] [^C=E][DF][I:staff -1] (3[^A^c][Bd][I:staff +1] x | %44
"^rinf." (3[A,,A,] [E^G][FA][I:staff -1] (3[^ce][df][I:staff +1] F,,-(3[F,,F,] [^CE][DF][I:staff -1] (3[^Gc][Ad][I:staff +1] D,,- | %45
(3[D,,D,] [^G,^C][A,D][I:staff -1] (3[E^G][FA][I:staff +1] A,,,-(3[A,,,A,,] [E,G,][F,A,][I:staff -1] (3[^CE][DF][I:staff +1] B,,,- | %46
(3!^![B,,,B,,] [^F,A,][G,B,][I:staff -1] (3[D^F][_EG][I:staff +1] G,,,-(3!^![G,,,G,,] [D,F,][_E,G,][I:staff -1] (3[A,D][B,E][I:staff +1] =E,,,- | %47
 (3[E,,,=E,,] [A,,^C,][B,,D,][I:staff -1] (3[^F,A,][G,B,][I:staff +1] A,,,-(3[A,,,A,,] [^D,^F,][E,G,][I:staff -1] (3[^B,^D][^CE][I:staff +1] x | %48
 [D,,D,]2 x2[K:treble] x2 z3/2[K:bass] [D,,D,]/ | [D,,A,,D,]4[K:treble] x2 z3/2[K:bass] [D,,D,]/ | %50
 [D,,^G,,D,]4[K:treble] x2 z3/2[K:bass] [D,,D,]/ | %51
 (6:4:6z [^D,^F,][E,G,][I:staff -1][C^D][^CE][I:staff +1] x (6:4:6z [D,F,][E,G,][I:staff -1][=CD][^CE][I:staff +1] x | %52
 [D,,D,]2 x2[K:treble] x2 z3/2[K:bass] [D,,D,]/ | %53
 [_E,,A,,_E,]4[K:treble] x2 z3/2[K:bass] [D,,D,]/ | %54
 [_E,,^G,,_E,]4[K:treble] x2 z3/2[K:bass] [D,,D,]/ | %55
 (6:4:6z [^D,^F,][E,G,][I:staff -1][C^D][^CE][I:staff +1] x (6:4:6z [D,F,][E,G,][I:staff -1][=CD][^CE][I:staff +1] x | %56
 (6:4:14x2[K:treble] (9:6:9e^d=d^c=c=B _BA^G =G z[K:bass] [G,,^C,E,G,] z | %57
 (6:4:14x2 (9:6:9E^D=D^C=C=B, _B,A,^G, =G, z[K:bass] [G,,^C,E,G,] z | %58
 (3:2:6[D,,^F,,A,,D,] z [G,,B,,^C,G,] z [D,^F,A,D] z (3:2:6[G,,B,,C,G,] z [D,,F,,A,,D,] z [G,,,B,,,^C,,G,,] z | %59
 (3:2:6[D,,^F,,A,,D,] z [G,,,B,,,^C,,G,,] z [D,,F,,A,,D,] z (3:2:6[G,,,B,,,C,,G,,] z [D,,F,,A,,D,] z [G,,,B,,,C,,G,,] z | %60
 [D,,^F,,A,,D,] z[K:treble] [Aa][^F^f] x2 [A,A][^F,F] x2[K:bass] [A,,A,][F,,^F,] | x8 x4 | x16 | %63
[K:treble] x8[K:bass] x8 x4"^rit." (3[D,,,D,,]2 [D,,D,]2 [D,D]2 || %64
[K:Bb]"^il canto marcato e vibrato assai" D4 D3 C | B,4 B,3 B, | A,3 A, _G3 A, | C4 B, z z2 | %68
 D4 D3 C | B,4 B,3 B, | _D3 C G3 x | F6 z2 | F4 F3 x | _A4 E2 z2 | E4 E3 x | !>!G4 D2 z2 | %76
 D4 D3 C | B,4 B,3 B, | D2 C2 B,2 C2 | D4 x4 | x8 x2 D, | %81
x[I:staff -1]d[I:staff +1][K:treble]x[I:staff -1]d'' ||[I:staff +1] z4 | %83
[K:bass]!p! (6:4:12B,,[K:treble]!<(! [F,DF][^F,DF][G,DF][_A,DF][=A,DF] [B,DF][=B,DF][CDF][^CDF][DF]!<)! z | %84
[K:bass] (6:4:12B,,[K:treble]!<(! [F,DF][_G,DF][=G,DF][_A,DF][=A,DF] [B,DF][=B,DF][CDF][^CDF][DF]!<)! z | %85
[K:bass] (6:4:12B,,[K:treble]!<(! [_G,E_G][=G,EG][_A,EG][=A,EG][B,EG] [_CEG][=CEG][_DEG][=DEG][EG]!<)! z | %86
[K:bass] (6:4:12B,,[K:treble]!<(! [F,DF][_G,DF][=G,DF][_A,DF][=A,DF] [B,DF][=B,DF][CDF][^CDF][DF]!<)! z | %87
[K:bass] (6:4:12G,,[K:treble]!<(! [B,GB][=B,GB][CGB][^CGB][DGB] [EGB][=EGB][FGB][^FGB][GB]!<)! z | %88
[K:bass] (6:4:12G,,[K:treble]!<(! [G,DB][^G,DB][A,DB][B,DB][=B,DB] [CDB][^CB][DB][_B,B] z!<)! z | %89
[K:bass] (6:4:12[C,,C,][K:treble] [B,GB][=B,GB][CGB][^CGB][DGB] [EGB][=EGB][FGB][^FGB][GB] z | %90
[K:bass] (6:4:12F,,[K:treble] [A,FA][B,FA][=B,FA][CFA][_DFA] [=DFA][EFA][=EFA][FA] z z | %91
[K:bass] (6:4:12[_D,,_D,][K:treble] [F,_DF]"^cresc."[_G,DF][=G,DF][_A,DF][=A,DF] [B,DF][=B,DF][CDF][DF] z z | %92
[K:bass] (6:4:12[_A,,,_A,,][K:treble] [_A,E_A][=A,EA][B,EA][=B,EA][CEA] z [B,EA][CEA][_DEA][=DA][EA] | %93
[K:bass] (6:4:12[=E,,=E,][K:treble] [^G,=E^G]"^cresc."[A,EG][^A,EG][=B,EG][^B,EG] [^CEG][DEG][^DEG][EG] z z | %94
[K:bass] (6:4:12[=B,,,=B,,][K:treble] [=B,^F=B][CFB][^CFB][^^CFB][^DFB] z [CFB][DFB][=EFB][^EB][FB] | %95
 !>!=B4[K:bass] =B,3 B, | =B,2 x2 x4 |[K:treble] =B4[K:bass] =B,3 B, | =B,2 x2 x4 | %99
[K:treble]"^cresc." =B4[K:bass] =B,3 B, |"^rinforz."{/G,,=E,G,} !^![C=E]4 x2 [G,CE]2 | %101
 !>![_A,_DF]4 =B,3 [D,F,B,] | !^![G,C=E]4 x2 [G,CE]2 | %103
"^rinforz." [_A,_DF-]2 (3F[I:staff -1]=E_E (6:4:6=D_DC[I:staff +1]_CB,=A, | %104
 (6:4:6_A,G,_G,F,=E,_E, (6:4:6=D,_D,C,_C,B,,A,, | %105
 (6:4:12[_D,F,][C,=E,][_C,_E,][B,,=D,][=A,,_D,][_A,,=C,][=G,,=B,,][_G,,_B,,][F,,=A,,][_F,,_A,,][E,,=G,,][=D,,_G,,] | %106
!<(! (6:4:6[_D,,F,,][=D,,_G,,][E,,=G,,][_F,,_A,,][E,,G,,][D,,_G,,]!<)!!<(! (6:4:6[_D,,=F,,][=D,,G,,][E,,=G,,][_F,,A,,][E,,G,,][D,,_G,,]!<)! | %107
!<(! (6:4:6[_D,,F,,][=D,,_G,,][E,,=G,,][_F,,_A,,]!<)!"^poco rit."[E,,G,,][D,,_G,,] x2 =B,,,2 | %108
 [C,,,C,,]2!p! x2 x4 | x8 | x8 | x4 [A,,=E,G,] z [B,,B,]2- | %112
 (6:4:11[B,,B,]2 [A,,A,] [G,,G,][F,,F,][=E,,=E,] [D,,D,][^C,,^C,][E,,E,] [=C,,=C,][E,,E,][=B,,,=B,,] | %113
 (3[=E,,=E,][_B,,,_B,,][E,,E,] [A,,,A,,] z (6:4:5!^![^C,^C]2 [B,,B,] [A,,A,][G,,G,][F,,F,] | %114
 (9:6:9[=E,,=E,][G,,G,][_E,,_E,] [G,,G,][D,,D,][G,,G,] [^C,,^C,][G,,G,][B,,,B,,] !wedge![G,,G,]!wedge![A,,,A,,] | %115
 (3:2:2!^![=E,=E]2 [D,D] (3[^C,^C][B,,B,][A,,A,] (6:4:6[G,G][F,F][E,E][D,D][C,C][B,B] | %116
 (3[A,A][G,G][F,F]"^il più forte possible" (6:4:6[=E,=E][K:treble][=E=e][Dd][^C^c][B,B][A,A] (3[B,B][G,G][B,B][K:bass] (3[F,F][G,G][E,E] (3[G,G][D,D][E,E] | %117
 x4 x4 x4 x2 (3x =G,A, (6:4:6^F,A,=F, A,=E,A, _E,A, =C,A, ^C,A, || %118
[K:F][M:6/8] z{/[E,^G,]} !wedge![F,A,][I:staff -1]{/[^CE]}!wedge![DF][I:staff +1] z{/[G,^C]} !wedge![A,D][I:staff -1]{/[E^G]}!wedge![FA] | %119
[I:staff +1] z{/[^F,A,]} !wedge![G,B,][I:staff -1]{/[^D^F]}!wedge![EG][I:staff +1] z{/[F,A,]} !wedge![G,B,][I:staff -1]{/[DF]}!wedge![EG] | %120
[I:staff +1] z{/[^D,^F,]} !wedge![E,G,][I:staff -1]{/[^B,^D]}!wedge![^CE][I:staff +1] z{/[D,F,]} [E,G,][I:staff -1]{/[B,D]}[CE] | %121
[I:staff +1] z{/[E,^G,]} [F,A,][I:staff -1]{/[^CE]}.[DF][I:staff +1] z{/[E,G,]} [F,A,][I:staff -1]{/[CE]}[DF] | %122
[I:staff +1] z{/[^D,^F,]} [E,G,][I:staff -1]{/[=B,^D]}[CE][I:staff +1] z{/[F,_B,]} [G,C][I:staff -1]{/[D^F]}[EG] | %123
[I:staff +1] z{/[^G,=B,]} [A,C][I:staff -1]{/[E^G]}[FA][I:staff +1] z{/[G,B,]} [A,^C][I:staff -1]{/[EG]}[FA] | %124
[I:staff +1] z{/[=G,^A,]} [^G,=B,][I:staff -1]{/[^D=G]}[E^G][I:staff +1] z{/[A,^D]} [B,E][I:staff -1]{/[=G^A]}[^G=B] | %125
[I:staff +1] z{/[^B,^D]} [^CE][I:staff -1]{/[^G^B]}[A^c][I:staff +1] z{/[B,D]} [CE][I:staff -1]{/[GB]}[Ac] | %126
[I:staff +1] z{/[^D^F]} [EG][I:staff -1]{/[^B^d]}[^ce][I:staff +1] z{/[DF]} [EG][I:staff -1]{/[Bd]}[ce] | %127
[I:staff +1] z{/[D=F]} [_E^F][I:staff -1]{/[=Bd]}[c_e][I:staff +1] z{/[D=F]} [E^F][I:staff -1]{/[Bd]}[ce] | %128
[I:staff +1] z{/[^CE]} [D=F][I:staff -1]{/[=G^A]}[^G=B][I:staff +1] z{/[=G,^A,]} [^G,=B,][I:staff -1]{/[^D=G]}[E^G] | %129
[I:staff +1] z{/[^B,^D]} [^CE][I:staff -1]{/[^G^B]}[A^c][I:staff +1] z{/[B,D]} [CE][I:staff -1]{/[GB]}[Ac] | %130
[I:staff +1] z{/[^D,^F,]} [E,G,][I:staff -1]{/[=C^D]}[^CE][I:staff +1] z{/[D,F,]} [E,G,][I:staff -1]{/[=CD]}[^CE] | %131
[I:staff +1] z{/[D,=F,]} [_E,^F,][I:staff -1]{/[=B,D]}[C_E][I:staff +1] z{/[D,=F,]} [E,^F,][I:staff -1]{/[B,D]}[CE] | %132
[I:staff +1] z{/[E,=G,]} [F,^G,][I:staff -1]{/[^CE]}[DF][I:staff +1] z{/^D,} E,{/=G,}^G, | %133
 [A,,,E,,A,,] x x2 x !wedge![D,D] | !wedge![A,,A,][K:treble] x x2 x !wedge![Dd] | %135
 !wedge![A,A] z/[K:bass] [D,D]/.[A,,A,] .[D,,D,].[A,,,A,,].[D,,D,] | %136
 .[A,,,A,,] z/ [D,D]/.[A,,A,] .[D,,D,].[A,,,A,,].[D,,D,] | %137
 .[A,,,A,,] ([^G,,^G,]/[A,,A,]/.[B,,B,]) ([A,,A,]/[B,,B,]/.[=B,,=B,]) ([_B,,_B,]/[=B,,=B,]/ | %138
.[C,C]) ([A,,A,]/[B,,B,]/.[=B,,=B,]) ([_B,,_B,]/[=B,,=B,]/.[C,C]) ([B,,B,]/[C,C]/ | %139
.[^C,^C]) ([B,,B,]/[=B,,=B,]/.[=C,=C]) ([B,,B,]/[C,C]/.[^C,^C]) ([^B,,^B,]/[C,C]/) || %140
[M:2/4]!ff! !wedge![D,,D,] x !wedge![D,,D,] x | !wedge![D,,D,] x !wedge![D,,D,] x | %142
 !wedge![^C,,^C,] x !wedge![A,,,A,,] x | !wedge![D,,D,] x !wedge![D,,D,] x | %144
 !wedge![^C,,^C,] x [^E,,^E,] x | [^F,,^F,] x [A,,A,] x | [E,,E,] x [^G,,^G,] x | %147
 [A,,A,] x [^C,^C] x/ [A,,A,]/ | [A,,^D,A,] x [A,,D,A,]x/[A,,D,A,]/ | [A,,E,A,] x [A,,^C,A,] x | %150
 [A,,_E,A,] x"^crescendo" [A,,E,A,]x/[A,,E,A,]/ | [B,,F,B,] x [B,,D,B,] x | %152
 [^A,,E,^A,] x [^A,,E,^A,]x/[^A,,E,^A,]/ | [=B,,^F,=B,] x [B,,B,][K:treble]x/[K:bass][B,,B,]/ | %154
 [C,G,C][K:treble] x[K:bass] [^C,^C][K:treble]x/[K:bass][C,C]/ | %155
"^rinforzando assai" [D,D] x [A,,A,] x | [F,,F,] x [D,,D,] x | [B,,B,] x [F,,F,] x | %158
 [D,,D,] x [B,,,B,,] x | [_E,,_E,]2 [B,,,B,,]2 | [_E,,_E,]2 [B,,,B,,]2 | [A,,,A,,]2 [F,,,F,,]2 | %162
 [E,,,E,,]2 [A,,,A,,]2 | [F,A,] z z3/2 [D,,D,]/ | !arpeggio!!>![_E,,^F,,A,,_E,]7/2 [D,,D,]/ | %165
 !arpeggio!!>![=F,,^G,,=B,,=F,]7/2 [D,,D,]/ | [_B,,D,G,_B,]z/[B,,B,]/ [A,,A,]z/[G,,G,]/ | %167
 !arpeggio![D,,^F,,A,,D,]3 z/ [D,,D,]/ | !arpeggio!!^![_E,,^F,,A,,_E,]3 z/ [D,,D,]/ | %169
 !arpeggio!!^![=B,,,=F,,^G,,=B,,]3 z/ [D,,D,]/ | %170
 [_B,,,^C,,E,,_B,,]z/[B,,,B,,]/ [G,,,C,,E,,G,,]z/[G,,,G,,]/ | %171
 [^F,A,][K:treble] (9:6:9!>!e/^d/=d/^c/=c/=B/_B/A/^G/ | %172
 !wedge!=G[K:bass] [G,,G,]/[^C,E,]/ [A,,A,]/[C,E,]/ [B,,B,]/[E,G,]/ | %173
 x (9:6:9!>!E/^D/=D/^C/=C/=B,/_B,/A,/^G,/ | %174
 !wedge!=G,[K:bass] [G,,,G,,]/[^C,,E,,]/ [A,,,A,,]/[C,,E,,]/ [B,,,B,,]/[E,,G,,]/ | %175
 !wedge![D,,^F,,A,,D,] [G,,B,,^C,G,]/[G,,B,,C,G,]/ !wedge![D,^F,A,D] [G,,B,,C,G,]/[G,,B,,C,G,]/ | %176
 !wedge![D,,^F,,A,,D,] [G,,B,,^C,G,]/[G,,B,,C,G,]/ !wedge![D,^F,A,D] [G,,B,,C,G,]/[G,,B,,C,G,]/ | %177
 !wedge![D,,^F,,A,,D,] [G,,,^C,,E,,G,,]/[G,,,C,,E,,G,,]/ !wedge![D,,F,,A,,D,] [G,,,C,,E,,G,,]/[G,,,C,,E,,G,,]/ | %178
 [D,,^F,,A,,D,] [G,,,^C,,E,,G,,] z [G,,,C,,E,,G,,] | %179
 z"^ritenuto" [G,,,^C,,E,,G,,] [D,,F,,^G,,D,] [D,,^F,,A,,_E,] | %180
 [D,,G,,B,,=E,] [D,,^G,,=B,,F,] [D,,A,,C,^F,] [D,,_B,,^C,=G,] | %181
 z2 !fermata![D,,=B,,^G,]2"^più rit." !fermata!x4 x8 (6:4:2x4 [D,,_B,,]2 | ([_E,,B,,]4 | %183
 B,,7/2 B,,/ | B,,4 | _A,,7/2 A,,/) |[M:4/4] z2 z (F,!>(! D3 F,)!>)! | z4 [F,_A,] z z3/2 [F,A,]/ | %188
 [F,_A,] z z (F,!>(! D3 F,)!>)! | z4 [F,_A,] z z3/2 [F,A,]/ | %190
 [F,_A,] z z[K:treble]!<(! (D!<)! _c3) D | z8 |[K:bass] z2 z"^rall." (D, _C3) (^G,, | %193
 !fermata!F,8) | z4 z/!f! [F,,F,]/[E,,E,]/[D,,D,]/[^C,,^C,]/[=C,,=C,]/[=B,,,=B,,]/[_B,,,_B,,]/ || %195
[K:D]"_ten." z2 z3/2 [A,DF]/4[A,DF]/4 [A,DF]3 x |"_ten." z2 z3/2 [F,B,DF]/4[F,B,DF]/4 [F,B,DF]3 x | %197
 z3/2 [F,^A,CF]/4[F,A,CF]/4 !wedge![F,A,CF] z z3/2 [=A,CEA]/4[A,CEA]/4 !wedge![A,CEA] x | %198
"_ten." z2 z3/2[K:treble] [A,DFA]/[A,DFA]z/[DFAd]/[DFAd]z/[F,DF]/ | %199
 [F,DF]z/[A,DFA]/[A,DFA]z/[K:bass][D,F,A,D]/ [D,F,A,D]z/[F,DF]/[F,DF]z/[A,,D,F,A,]/ | %200
 [A,,D,F,A,]z/[D,F,A,D]/[D,F,A,D]z/[F,,D,F,]/ [F,,D,F,]z/[A,,D,F,A,]/[A,,D,F,A,]z/[D,,F,,A,,D,]/ | %201
 x7 x/ F,/ | %202
 F, x/ F,/ F, x/!8vb(! [D,,,A,,,D,,]/ [D,,,A,,,D,,][D,,,_B,,,D,,][D,,,A,,,D,,][D,,,B,,,D,,] | %203
 [D,,,A,,,D,,][D,,,_B,,,D,,][D,,,A,,,D,,][D,,,B,,,D,,] [D,,,A,,,D,,][D,,,B,,,D,,][D,,,A,,,D,,][D,,,B,,,D,,] | %204
 [D,,,F,,,A,,,D,,]2!8vb)! [D,,F,,A,,D,]2 [D,F,A,D]2[K:treble] [DFAd]2 | %205
[K:bass] !fermata![D,,,D,,D,]8 |] %206
V:3
 z8 | z8 | z8 | z8 | z8 | z8 z4 | z8 z4 | z8 z | %8
!ped! !wedge![D,,A,,D,]4 !wedge![D,,A,,D,]2 x2!ped-up! | %9
!ped! !wedge![D,,G,,D,]4 !wedge![D,,G,,D,]2 x2!ped-up! | %10
!ped! [^C,,^C,]2 x2!ped-up!!ped! [A,,,A,,]2 x2!ped-up! |!ped! [D,,D,]2 x2 [D,,A,,D,]2 z2 | %12
 [^C,,^C,]4 [E,,E,]2 x2 | [F,,F,]2 x2 [F,,F,]2 x2 | [E,,E,]4 [^G,,^G,]2 x2 | %15
 [A,,E,A,]2 x2 [A,,E,A,]2 x2 | !wedge![B,,E,B,]4 [A,,A,]2 x2 | !wedge![B,,_E,B,]4 [A,,A,]2 x2 | %18
 !wedge![=B,,D,=B,]2 x2 [E,,B,,E,]2 x2 | [A,,E,A,]2 x2 [A,,E,A,]2 x2 | %20
 !wedge![B,,,E,,B,,]4 [A,,,A,,]2 x2 | !wedge![B,,,_E,,B,,]4 [A,,,A,,]2 x2 | %22
 !wedge![=B,,,D,,=B,,]2 x2 [_B,,,D,,_B,,]2 x2 | %23
 (6:4:15[A,,,E,,A,,] z (3G,^G,A,(3B,=B,C (3^CD^D(3E=DC x2 | z8 | z8 | z16 | z16 | z16 | z16 z2 | %30
 z8 z4 | z8 z4 ||[M:4/4] z8 | z8 | z8 | z8 | z8 | z8 | z8 | z8 | z8 | z8 | z8 | z8 | z8 | z8 | z8 | %47
 z8 | z8 | z8 | z8 | z8 | z8 | z8 | z8 | z8 | z8 | z8 | z8 | z8 | z8 z4 | z8 z4 | z16 | z16 z8 || %64
[K:Bb] z8 | z8 | z8 | z8 | z8 | z8 | z8 | z8 | z8 | z8 | z8 | z8 | z8 | z8 | z8 | z8 | z8 z2 z | %81
 z4 || z4 | z8 | z8 | z8 | z8 | z8 | z8 | z8 | z8 | z8 | z8 | z8 | z8 | z8 | z8 | z8 | z8 | z8 | %100
 z8 | z8 | z8 |!ped! z8 | z8 | z8 | z8 | z8 | z8 | z8 | z8 | z8 | z8 | z8 | z8 | z8 | z8 z4 | %117
 z16 z8 z2 ||[K:F][M:6/8] z6 | z6 | z6 | z6 | z6 | z6 | z6 | z6 | z6 | z6 | z6 | z6 | z6 | z6 | %132
 z6 | z6 | z6 | z6 | z6 | z6 | z6 | z6 ||[M:2/4] z4 | z4 | z4 | z4 | z4 | z4 | z4 | z4 | z4 | z4 | %150
 z4 | z4 | z4 | z4 | z4 | z4 | z4 | z4 | z4 | z4 | z4 | z4 | z4 | z4 | z4 | z4 | z4 | z4 | z4 | %169
 z4 | z4 | z4 | z4 | z4 | z4 | z4 | z4 | z4 | z4 | z4 | z4 | z16 z4 | z4 | z4 | z4 | z4 | %186
[M:4/4] z8 | z8 | z8 | z8 | z8 | z8 | z8 | z8 | z8 ||[K:D] z8 | z8 | z8 | z8 | z8 | z8 | z8 | z8 | %203
 z8 | z8 | z8 |] %206
V:4
 x2[K:treble] x6 | x2[K:bass] x6 | x8 | x8 |[K:treble] x8 |[K:bass] x12 | x8[K:treble] x4 | %7
 x28/5[K:bass] x17/5 | x2[K:treble] x3[K:bass] x[K:treble] x2 | %9
 x[K:bass] x[K:treble] x3[K:bass] x[K:treble] x2 |[K:bass] x2[K:treble] x3[K:bass] x[K:treble] x2 | %11
 x[K:bass] x[K:treble] x3[K:bass] x[K:treble] x2 | %12
 x[K:bass] x[K:treble] x3[K:bass] x[K:treble] x2 | %13
 x[K:bass] x[K:treble] x3[K:bass] x[K:treble] x2 | %14
 x[K:bass] x[K:treble] x3[K:bass] x[K:treble] x2 | x8 | x8 | x8 | x8 | x8 | %20
 x[K:bass] x[K:treble] x3[K:bass] x[K:treble] x2 |[K:bass] x2[K:treble] x3[K:bass] x[K:treble] x2 | %22
[K:bass] x8 |[K:treble] (3:2:16x2 (3EF^F!<(!(3G^GA (3:2:9(3B=B^c!<)!(3^cde (3Bf^g | %24
[K:bass] (3x2[K:treble] B,2 ^C2 (3E2 =G2 x2 | x43/32[K:bass] x20/3 | x16 | x16 | x16 | %29
 x[K:treble] x8[K:bass] x9 | %30
 (3[^C,^C][A,,A,][B,,B,] (3[G,,G,][B,,B,][F,,F,] (3[G,,G,][E,,E,][G,,G,] (3[D,,D,][E,,E,][^C,,C,] (3[E,,E,][B,,,B,,][C,,C,] (3[A,,,A,,][B,,,B,,][^G,,,^G,,] | %31
 (3[A,,,A,,][=G,,,=G,,][A,,,A,,] (3[^F,,,^F,,][A,,,A,,][=F,,,=F,,] (3[A,,,A,,][E,,,E,,][A,,,A,,] [_E,,,_E,,][A,,,A,,] [C,,,C,,][A,,,A,,] [^C,,,^C,,][A,,,A,,] || %32
[M:4/4] [D,,A,,D,] x x2 x4 | x8 | x8 | x8 | x8 | x8 | x8 | x8 | x8 | x8 | x8 | x7 x/ [^G,,^G,]/ | %44
 x8 | x8 | x8 | x7 x/ [A,,,A,,]/ | x4[K:treble] x7/2[K:bass] x/ | x4[K:treble] x7/2[K:bass] x/ | %50
 x4[K:treble] x7/2[K:bass] x/ | [_B,,,_B,,]2 x3/2 [B,,,B,,]/ [A,,,A,,]2 x3/2 [G,,,G,,]/ | %52
 x4[K:treble] x7/2[K:bass] x/ | x4[K:treble] x7/2[K:bass] x/ | x4[K:treble] x7/2[K:bass] x/ | %55
 [_B,,,_B,,]2 x3/2 [B,,,B,,]/ [A,,,A,,]2 x3/2 [G,,,G,,]/ | %56
 (3:2:4[D,,A,,D,] z[K:treble] G2 E2 (3:2:4^C2 B, x[K:bass] x2 | %57
 (3:2:4[D,^F,A,D] z G,2 E,2 (3:2:4^C,2 B,, x[K:bass] x2 | x8 | x8 | x2[K:treble] x8[K:bass] x2 | %61
 x12 | x16 |[K:treble] x8[K:bass] x16 || %64
[K:Bb] !arpeggio![B,,F,B,] x x2 !arpeggio![B,,,B,,F,B,] x x2 | %65
 !arpeggio![B,,D,F,] x x2 !arpeggio![B,,,B,,D,F,] x x2 | %66
 !arpeggio![B,,E,_G,] x x2 !arpeggio![G,A,] x x2 | !arpeggio![B,,F,] x x2 x4 | %68
 !arpeggio![D,G,B,] x x2 !arpeggio![G,,,G,,D,G,B,] x x2 | %69
 !arpeggio![G,,D,] x x2 !arpeggio![G,,,G,,D,G,] x x2 | %70
 !arpeggio![C,=E,B,] x x2 !arpeggio![G,C] x x2 | !arpeggio![F,,C,A,] x x2 x4 | %72
 !arpeggio![_D,_A,_D] x x2 !arpeggio![_D,,D,A,D] x x2 | %73
 !arpeggio![_A,_DE] x x2 !arpeggio![_A,,E,A,C] x x2 | %74
 !arpeggio![C,G,C] x x2 !arpeggio![C,,C,G,C] x x2 | %75
 !arpeggio![G,CD] x x2 !arpeggio![G,,D,G,=B,] x x2 | %76
 !arpeggio![_B,,F,_B,] x x2 !arpeggio![B,,,B,,F,B,] x x2 | %77
 !arpeggio![G,,D,] x x2 !arpeggio![G,,,G,,D,G,] x x2 | [E,G,] x E,, x [E,G,] x E,, x | %79
 !arpeggio![D,,A,,^F,] x x2 x4 | x8 x D,, x |Dx[K:treble]d' x || x4 | %83
[K:bass] x2/3[K:treble] x22/3 |[K:bass] x2/3[K:treble] x22/3 |[K:bass] x2/3[K:treble] x22/3 | %86
[K:bass] x2/3[K:treble] x22/3 |[K:bass] x2/3[K:treble] x22/3 |[K:bass] x2/3[K:treble] x22/3 | %89
[K:bass] x2/3[K:treble] x22/3 |[K:bass] x2/3[K:treble] x22/3 |[K:bass] x2/3[K:treble] x22/3 | %92
[K:bass] x2/3[K:treble] x22/3 |[K:bass] x2/3[K:treble] x22/3 |[K:bass] x2/3[K:treble] x22/3 | %95
 !arpeggio![^G,^^C^E] x x2[K:bass] !arpeggio![^G,,^^C,^E,]"_appassionato" x x2 | %96
 !arpeggio![^G,,^D,] z z3/2 [^G,,,^D,,]/[G,,,D,,] z z2 | %97
[K:treble] !arpeggio![^G,^^C^E] x x2[K:bass] !arpeggio![^G,,^^C,^E,] x x2 | %98
 !arpeggio![^G,,^D,] z z3/2 [^G,,,^D,,]/[G,,,D,,] z z2 | %99
[K:treble] !arpeggio![_A,=DF] x x2[K:bass] !arpeggio![_A,,D,F,] x x2 | x4 [G,,,G,,] z x2 | %101
 x4 !arpeggio![G,,=D,F,] x x2 | x4 [G,,,G,,] z x2 | x8 | x8 | %105
 (6:4:12_A,,G,,_G,,F,,=E,,_E,,D,,_D,,C,,_C,,_B,,,A,,, | %106
 (6:4:6_A,,,=A,,,B,,,_C,,B,,,A,,, (6:4:6_A,,,=A,,,B,,,C,,B,,,A,,, | %107
 (6:4:6_A,,,=A,,,B,,,_C,,B,,,A,,, (3_A,,,=A,,,B,,, (3:2:2z _D,,,2 | x8 | x8 | x8 | x8 | x8 | x8 | %114
 x8 | x8 | x8/3[K:treble] x16/3[K:bass] x4 | %117
 (3[^C,^C][=E,=E][B,,B,] (3[C,C][A,,A,][B,,B,] (3[G,,G,][B,,B,][F,,F,] (3[G,,G,][=E,,E,][G,,G,] (3[D,,D,][E,,E,][^C,,C,] (3[E,,E,][B,,,B,,][C,,C,] (3[A,,,A,,][B,,,B,,][^G,,,^G,,] (3[A,,,A,,][=G,,,=G,,][A,,,A,,] (3[^F,,,^F,,][A,,,A,,][=F,,,=F,,] (3[A,,,A,,][=E,,,E,,][A,,,A,,] [_E,,,_E,,][A,,,A,,] [=C,,,=C,,][A,,,A,,] [^C,,,^C,,][A,,,A,,] || %118
[K:F][M:6/8] !wedge![D,,A,,D,]2 x !wedge![D,,A,,D,]2 x | %119
 !wedge![D,,G,,D,]2 x !wedge![D,,G,,D,]2 x | !wedge![^C,,^C,]2 x !wedge![A,,,A,,]2 x | %121
 !wedge![D,,D,]2 x !wedge![D,,A,,D,]2 x | !wedge![C,,C,]2 x !wedge![E,,E,]2 x | %123
 !wedge![F,,C,F,]2 x !wedge![F,,F,]2 x | !wedge![E,,E,]2 x !wedge![^G,,^G,]2 x | %125
 !wedge![A,,E,A,]2 x !wedge![A,,E,A,]2 x/ [A,,A,]/ | %126
 !wedge![B,,E,B,]2 x !wedge![A,,A,]2 x/ [A,,A,]/ | %127
 !wedge![B,,_E,B,]2 x !wedge![A,,A,]2 x/ [A,,A,]/ | !wedge![=B,,D,=B,]2 x !wedge![E,,B,,E,]2 x | %129
 !wedge![A,,E,A,]2 x !wedge![A,,E,A,]2 x/ [A,,,A,,]/ | %130
 !wedge![B,,,E,,B,,]2 x !wedge![A,,,A,,]2 x/ [A,,,A,,]/ | %131
 !wedge![B,,,_E,,B,,]2 x !wedge![A,,,A,,]2 x/ [A,,,A,,]/ | %132
 !wedge![=B,,,D,,=B,,]2 x !wedge![_B,,,D,,_B,,]2 x | x6 | x[K:treble] x5 | x3/2[K:bass] x9/2 | x6 | %137
 x6 | x6 | x6 ||[M:2/4] D,,{/[^E,^G,D]}!wedge![^F,A,] D,,{/[E,G,D]}!wedge![F,A,] | %141
 D,,{/[^F,A,]}!wedge![G,B,] D,,{/[F,A,]}!wedge![G,B,] | %142
 ^C,,{/[^D,^F,]}!wedge![E,G,] A,,,{/[D,F,]}!wedge![E,G,] | %143
 D,,{/[^E,^G,D]}!wedge![^F,A,] D,,{/[E,G,]}!wedge![F,A,] | %144
 ^C,,{/[E,G,^C]}!wedge![^E,^G,] ^E,,{/[=G,C]}^G, | ^F,,{/[^G,^C]}A, A,,{/[G,C]}A, | %146
 E,,{/[^^F,^A,E]}[^G,=B,] ^G,,{/[A,E]}B, | A,,{/[^B,E]}^C ^C,{/[B,E]}C | %148
 A,,{/[=D^E]}[^D^F] A,,{/[=DE]}[^DF] | A,,{/[^B,^D]}[^CE] A,,{/[B,D]}[CE] | %150
 A,,{/[DF]}[_E_G] A,,{/[DF]}[EG] | B,,{/[^C=E]}[DF] B,,{/[CE]}[DF] | %152
 ^A,,{/[^D^F]}[EG] A,,{/[DF]}[EG] | =B,,{/[^^C^E]}[^D^F] B,,[K:treble]{/[=EG]}[=F_A][K:bass] | %154
 C,[K:treble]{/[^D^F]}[EG][K:bass] ^C,[K:treble]{/[FA]}[G_B][K:bass] | %155
 D,{/[E^G]}[=FA] A,,{/[^CE]}[DF] | F,,{/[^G,^C]}[A,D] D,,{/[E,G,]}[F,A,] | %157
 B,,{/[^CE]}[DF] F,,{/[A,C]}[B,D] | D,,{/[E,A,]}[F,B,] B,,,{/[^C,E,]}[D,F,] | %159
 _E,,{/[^F,A,]}[G,B,] B,,,{/[F,A,]}[G,B,] | _E,,{/[^F,A,]}[G,B,] B,,,{/[F,A,]}[G,B,] | %161
 A,,,{/[=E,^G,]}[=F,A,] F,,,{/E,}F, | E,,,[B,,D,E,] A,,,[A,,^C,E,G,] | [D,,A,,D,] x x2 | x4 | x4 | %166
 x4 | x4 | x4 | x4 | x4 | !wedge![D,,A,,D,][K:treble] G E ^C | B,[K:bass] x x2 | %173
 !wedge![D,^F,A,D] G, E, ^C, | B,,[K:bass] x x2 | x4 | x4 | x4 | x4 | x4 | x4 | x20 | x4 | _D,,4 | %184
 _C,,4 | _C,,7/2 C,,/ |[M:4/4] [_C,,_A,,] x x2 x4 | x4 [B,,,_A,,] x x3/2 [_C,,A,,]/ | %188
 [_C,,_A,,] x x2 x4 | x4 [B,,,_A,,] x x3/2 [_C,,A,,]/ | [_C,,_A,,] x x[K:treble] x x4 | x8 | %192
[K:bass] x8 | x8 | x8 ||[K:D] !^![A,,,A,,]6 x3/2 [A,,,A,,]/ | !^![B,,,B,,]6 x3/2 [B,,,B,,]/ | %197
 !^![F,,,F,,]4 !^![=A,,,=A,,]3 x/ [D,,,A,,,D,,]/ | !^![D,,,A,,,D,,]8[K:treble] | %199
 x7/2[K:bass] x9/2 | x8 | %201
 [D,,F,,A,,D,]z/[F,,D,F,]/[F,,D,F,]z/[A,,,D,,F,,A,,]/ [A,,,D,,F,,A,,]z/[D,,F,,A,,D,]/[D,,F,,A,,D,]z/[F,,,D,,F,,]/ | %202
 [F,,,D,,F,,]z/[F,,,D,,F,,A,,]/[F,,,D,,F,,A,,] z/!8vb(! x/ x4 | x8 | x2!8vb)! x4[K:treble] x2 | %205
[K:bass] x8 |] %206
V:5
 x2[K:treble] x6 | x2[K:bass] x6 | x8 | x8 |[K:treble] x8 |[K:bass] x12 | x8[K:treble] x4 | %7
 x28/5[K:bass] x17/5 | x2[K:treble] x3[K:bass] x[K:treble] x2 | %9
 x[K:bass] x[K:treble] x3[K:bass] x[K:treble] x2 |[K:bass] x2[K:treble] x3[K:bass] x[K:treble] x2 | %11
 x[K:bass] x[K:treble] x3[K:bass] x[K:treble] x2 | %12
 x[K:bass] x[K:treble] x3[K:bass] x[K:treble] x2 | %13
 x[K:bass] x[K:treble] x3[K:bass] x[K:treble] x2 | %14
 x[K:bass] x[K:treble] x3[K:bass] x[K:treble] x2 | x8 | x8 | x8 | x8 | x8 | %20
 x[K:bass] x[K:treble] x3[K:bass] x[K:treble] x2 |[K:bass] x2[K:treble] x3[K:bass] x[K:treble] x2 | %22
[K:bass] x8 |[K:treble] (3x2 ^c2 e2 (3g2 b2 =b2 |[K:bass] x65/48[K:treble] x401/60 | %25
 x43/32[K:bass] x20/3 | x16 | x16 | x16 | x[K:treble] x8[K:bass] x9 | x12 | x12 ||[M:4/4] x8 | x8 | %34
 x8 | x8 | x8 | x8 | x8 | x8 | x8 | x8 | x8 | x8 | x8 | x8 | x8 | x8 | %48
 x4[K:treble] x7/2[K:bass] x/ | x4[K:treble] x7/2[K:bass] x/ | x4[K:treble] x7/2[K:bass] x/ | x8 | %52
 x4[K:treble] x7/2[K:bass] x/ | x4[K:treble] x7/2[K:bass] x/ | x4[K:treble] x7/2[K:bass] x/ | x8 | %56
 x27/20[K:treble] x5[K:bass] x4/3 | x429/64[K:bass] x4/3 | x8 | x8 | x2[K:treble] x8[K:bass] x2 | %61
 x12 | x16 |[K:treble] x8[K:bass] x16 ||[K:Bb] x8 | x8 | x8 | x8 | x8 | x8 | x8 | x8 | x8 | x8 | %74
 x8 | x8 | x8 | x8 | x8 | x8 | x11 | x2[K:treble] x2 || x4 |[K:bass] x2/3[K:treble] x22/3 | %84
[K:bass] x2/3[K:treble] x22/3 |[K:bass] x2/3[K:treble] x22/3 |[K:bass] x2/3[K:treble] x22/3 | %87
[K:bass] x2/3[K:treble] x22/3 |[K:bass] x2/3[K:treble] x22/3 |[K:bass] x2/3[K:treble] x22/3 | %90
[K:bass] x2/3[K:treble] x22/3 |[K:bass] x2/3[K:treble] x22/3 |[K:bass] x2/3[K:treble] x22/3 | %93
[K:bass] x2/3[K:treble] x22/3 |[K:bass] x2/3[K:treble] x22/3 | x4[K:bass] x4 | x8 | %97
[K:treble] x4[K:bass] x4 | x8 |[K:treble] x4[K:bass] x4 | x8 | x8 | x8 | x8 | x8 | x8 | x8 | x8 | %108
 x8 | x8 | x8 | x8 | x8 | x8 | x8 | x8 | x8/3[K:treble] x16/3[K:bass] x4 | x26 ||[K:F][M:6/8] x6 | %119
 x6 | x6 | x6 | x6 | x6 | x6 | x6 | x6 | x6 | x6 | x6 | x6 | x6 | x6 | x6 | x[K:treble] x5 | %135
 x3/2[K:bass] x9/2 | x6 | x6 | x6 | x6 ||[M:2/4] x4 | x4 | x4 | x4 | x4 | x4 | x4 | x4 | x4 | x4 | %150
 x4 | x4 | x4 | x3[K:treble] x/[K:bass] x/ | x[K:treble] x[K:bass] x[K:treble] x/[K:bass] x/ | x4 | %156
 x4 | x4 | x4 | x4 | x4 | x4 | x4 | x4 | x4 | x4 | x4 | x4 | x4 | x4 | x4 | x[K:treble] x3 | %172
 x[K:bass] x3 | x4 | x[K:bass] x3 | x4 | x4 | x4 | x4 | x4 | x4 | x20 | x4 | x4 | x4 | x4 | %186
[M:4/4] x8 | x8 | x8 | x8 | x3[K:treble] x5 | x8 |[K:bass] x8 | x8 | x8 ||[K:D] x8 | x8 | x8 | %198
 x7/2[K:treble] x9/2 | x7/2[K:bass] x9/2 | x8 | x8 | x7/2!8vb(! x9/2 | x8 | %204
 x2!8vb)! x4[K:treble] x2 |[K:bass] x8 |] %206
V:6
 x8 | x8 | x8 | x8 | x8 | x12 | x12 | x9 | x8 | x8 | x8 | x8 | x8 | x8 | x8 | x8 | x8 | x8 | x8 | %19
 x8 | x8 | x8 | x8 | (3x2 B,,2 ^C,2 (3:2:4E,2 =G,2 [D,^G,=B,F] z | x8 | x8 | x16 | x16 | x16 | %29
 x18 | x12 | x12 ||[M:4/4] x8 | x8 | x8 | x8 | x8 | x8 | x8 | x8 | x8 | x8 | x8 | x8 | x8 | x8 | %46
 x8 | x8 | x8 | x8 | x8 | x8 | x8 | x8 | x8 | x8 | x8 | x8 | x8 | x8 | x12 | x12 | x16 | x24 || %64
[K:Bb] x8 | x8 | x8 | x8 | x8 | x8 | x8 | x8 | x8 | x8 | x8 | x8 | x8 | x8 | x8 | x8 | x11 | x4 || %82
 x4 | x8 | x8 | x8 | x8 | x8 | x8 | x8 | x8 | x8 | x8 | x8 | x8 | x8 | x8 | x8 | x8 | x8 | x8 | %101
 x8 | x8 | x8 | x8 | x8 | x8 | x8 | x8 | x8 | x8 | x8 | x8 | x8 | x8 | x8 | x12 | x26 || %118
[K:F][M:6/8] x6 | x6 | x6 | x6 | x6 | x6 | x6 | x6 | x6 | x6 | x6 | x6 | x6 | x6 | x6 | x6 | x6 | %135
 x6 | x6 | x6 | x6 | x6 ||[M:2/4] x4 | x4 | x4 | x4 | x4 | x4 | x4 | x4 | x4 | x4 | x4 | x4 | x4 | %153
 x4 | x4 | x4 | x4 | x4 | x4 | x4 | x4 | x4 | x4 | x4 | x4 | x4 | x4 | x4 | x4 | x4 | x4 | x4 | %172
 x4 | x4 | x4 | x4 | x4 | x4 | x4 | x4 | x4 | x20 | x4 | x4 | x4 | x4 |[M:4/4] x8 | x8 | x8 | x8 | %190
 x8 | x8 | x8 | x8 | x8 ||[K:D] x8 | x8 | x8 | x8 | x8 | x8 | x8 | x8 | x8 | x8 | x8 |] %206
V:7
 x2!8va(! x5!8va)! x | x8 | x8 | x8 | x8 |[K:bass] x10[K:treble] x2 | x11!8va(! x | %7
 x22/5!8va)! x23/5 | x8 | x8 | x8 | x8 | x8 | x8 | x8 | x8 | x8 | x8 | x8 | x8 | x8 | x8 | x8 | %23
 x8 | (3:2:16x2!8va(! (3ef^f!<(!(3g^ga (3:2:9(3b=b=c'(3^c'd'e'!<)! (3bf'^g' | %25
 (3:2:5x2 (3=bf'^g' x2 (9:4:7(1:1:3bf'g' x2 (1:1:3bf'g' | x!8va)! x15 | x16 | x8!8va(! x8 | %29
 x15!8va)! x3 | x12 | x12 ||[M:4/4] x8 | x8 | x8 | x8 | x8 | x8 | x8 | x8 | x8 | x8 | x8 | x8 | %44
 x8 | x8 | x8 | x8 | %48
 (3z z!<(![I:staff +1] [E,^G,] (3[F,A,][I:staff -1][E^G][FA][I:staff +1] (3[e^g][fa]!8va(![I:staff -1][e'^g']!<)! [f'a']!8va)! z | %49
 (3z z!<(![I:staff +1] [^G,=B,] (3[A,C][I:staff -1][^G=B][Ac][I:staff +1] (3[^g=b][ac']!8va(![I:staff -1][^g'=b']!<)! [a'c'']!8va)! z | %50
 (3z z!<(![I:staff +1] [=G,^A,] (3[^G,=B,][I:staff -1][G^A][^G=B][I:staff +1] (3[g^a][^g=b]!8va(![I:staff -1][g'^a']!<)! [^g'=b']!8va)! z | %51
 x8 | %52
 (3z z[I:staff +1] [^E,^G,] (3[^F,A,][I:staff -1][^E^G][^FA][I:staff +1] (3[^e^g][^fa]!8va(![I:staff -1][^e'^g'] [^f'a']!8va)! z | %53
 (3z z!<(![I:staff +1] [^G,=B,] (3[A,C][I:staff -1][^G=B][Ac][I:staff +1] (3[^g=b][ac']!8va(![I:staff -1][^g'=b']!<)! [a'c'']!8va)! z | %54
 (3z z!<(![I:staff +1] [=G,^A,] (3[^G,=B,][I:staff -1][G^A][^G=B][I:staff +1] (3[g^a][^g=b]!8va(![I:staff -1][g'^a']!<)! [^g'=b']!8va)! z | %55
 x8 | (6:4:15x2!8va(! (9:6:9^c'=c'=b_ba^g =g^f=f e!8va)! x (3B^ce | %57
 (6:4:15x2 (9:6:9^c=c=B_BA^G =G^F=F E x (3B,^CE | %58
 (3:2:5x2 (3EB^c x2 (9:4:8(1:1:3Bce [d^f] x!8va(! (1:1:3eb^c' | %59
 (3:2:7[^fa] x (3b^c'e' [d'^f'] x (9:4:8(1:1:3bc'e' [d'f'] x (1:1:3bc'e' | x2!8va)! x10 | %61
[K:bass] x12 | x21/2[K:treble] x11/2 | x12[K:bass] x12 || %64
[K:Bb][K:treble] x10/3!8va(! x2!8va)! x8/3 | x10/3!8va(! x2!8va)! x8/3 | %66
 x10/3!8va(! x2!8va)! x8/3 | x10/3!8va(! x2!8va)! x8/3 | x10/3!8va(! x2!8va)! x8/3 | %69
 x10/3!8va(! x2!8va)! x8/3 | x4!8va(! (3:2:4x2!8va)! x2 x !tenuto!=E | x10/3!8va(! x2!8va)! x8/3 | %72
 x4!8va(! (3:2:4x2!8va)! x2 x !tenuto!F | x10/3!8va(! x2!8va)! x8/3 | %74
 x4!8va(! (3:2:4x2!8va)! x2 x !tenuto!E | x10/3!8va(! x2!8va)! x8/3 | x10/3!8va(! x2!8va)! x8/3 | %77
 x10/3!8va(! x2!8va)! x8/3 | x14/3!8va(! x10/3!8va)! | x10/3!8va(! x10/3!8va)! x4/3 | %80
 x6[K:bass] x5 |[K:treble] x4 || x4 | (3:2:6z [fb][fb][fb][fb][fb] (3:2:6z [fb][fb][fb][fb] x | %84
 (6:4:12z [df][df][df][df][df] z [df][df][df][df] x | %85
 (6:4:12z [ce][ce][ce][ce] x z [ac'][ac'][ac'][ac'] x | %86
 (6:4:12z [df][df][df][df][df] z [df][df][df][df][df] | %87
 (6:4:12z [gb][gb][gb][gb][gb] z [gb][gb][gb][gb] x | %88
 (6:4:12z [dg][dg][dg][dg][dg] [dg][dg][dg][dg][dg] x | %89
 (6:4:12z [=eb][eb][eb][eb] x!8va(! z [_d'=e'][d'e'][d'e'][d'e'] x | %90
 (6:4:12z [ac'][ac'][ac'][ac'][ac'] [ac'][ac'][ac'][ac'][ac'][ac'] | %91
 (6:4:12z [_a_d'][ad'][ad'][ad'][ad'] z [ad'][ad'][ad'][ad'] x | %92
 (6:4:12z [_d'e'][d'e'][d'e'][d'e'][d'e'] z [_ac'][ac'][ac'][ac'][ac'] | %93
 (6:4:12z [=b=e'][be'][be'][be'][be'] z [be'][be'][be'][be'] x | %94
 (6:4:12z [=e'^f'][e'f'][e'f'][e'f'][e'f'] z [=b^d'][bd'][bd'][bd'][bd']!8va)! | x8 | x8 | x8 | %98
!8va(! x8 | x8 | x8 | x4!8va)! x4 | x8 | x8 | x8 | x8 | x8 | x6[K:bass] (3:2:2=E,, F,,2 | %108
 x2 (9:6:9C,[=E,G,][I:staff +1][C,,C,][I:staff -1] _D,[F,_A,][I:staff +1][_C,,_C,][I:staff -1] =D,[F,A,][I:staff +1][B,,,B,,] | %109
[I:staff -1] (6:4:12E,[G,B,][I:staff +1][E,,,E,,][I:staff -1] =E,[^G,=B,][I:staff +1][D,,D,][I:staff -1] ^E,[G,B,]"_cresc."[I:staff +1][^C,,^C,][I:staff -1] ^F,[^A,^C][I:staff +1][^F,,,^F,,] | %110
[I:staff -1][K:treble] (6:4:12G,[=B,D][I:staff +1][=F,,,=F,,][I:staff -1] ^G,[B,D][I:staff +1][=E,,,=E,,][I:staff -1] A,[^C=E][I:staff +1][A,,,A,,][I:staff -1] _B,[DF][I:staff +1][A,,,A,,] | %111
[I:staff -1] (6:4:9=B,[^D^F][I:staff +1][A,,,A,,][I:staff -1] C[=EG][I:staff +1][A,,,A,,][I:staff -1] x2 x2 x2 | %112
 x8 | x8 | x8 | x4!8va(! x4 | x12!8va)! | x26 ||[K:F][M:6/8] x6 | x6 | x6 | x6 | x6 | x6 | x6 | %125
 x6 | x6 | x6 | x6 | x6 | x6 | x6 | x6 | x6 | %134
 x3/2!8va(! x/!8va)! x/!8va(! x/!8va)! x/!8va(! x/!8va)! x/!8va(! x/!8va)!!8va(! x | x6 | x6 | %137
 x!8va)! x5 | x6 | x6 ||[M:2/4] d{/[^E^G]}!wedge![^FA] d{/[EG]}!wedge![FA] | %141
 B{/[^D^F]}!wedge![EG] B{/[DF]}!wedge![EG] | A{/[^B,^D]}!wedge![^CE] e{/[B,D]}!wedge![CE] | %143
 ^F{/[^E^G]}!wedge![FA] D{/[^CE]}!wedge![DF] | ^c{/[EG]}!wedge![^E^G] c{/[=E=G]}[^E^G] | %145
 A{/[^E^G]}[^FA] F{/[EG]}[FA] | e{/[^^F^A]}[^G=B] e{/[FA]}[GB] | ^c{/[^G^B]}[Ac] A{/[GB]}[Ac] | %148
 ^f{/[=B=d]}[^B^d] f{/[=B=d]}[^B^d] | a{/[^B^d]}[^ce] e{/[^GB]}[Ac] | %150
 _g{/[=Bd]}[c_e] g{/[Bd]}[ce] | b{/[^ce]}[df] f{/[Ac]}[Bd] | g{/[^B^d]}[^ce] g{/[Bd]}[ce] | %153
 =b{/[^A^^c]}[=B^d] b{/[^ce]}[=d=f] | c'{/[=B^d]}[ce] ^c'{/[d^f]}[eg] | %155
 d'{/[e^g]}[=fa] a{/[^ce]}[df] | f{/[^G^c]}[Ad] d{/[EG]}[FA] | b{/[^ce]}[df] f{/[Ac]}[Bd] | %158
 d{/[EA]}[FB] B{/[^CE]}[DF] | _e{/[D^F]}[_EG] B{/[DF]}[EG] | _e{/[D^F]}[_EG] B{/[DF]}[EG] | %161
 A{/[^CE]}[D=F] F{/[^G,C]}[A,D] | E[G,B,D] A[A,^CEA] | x5/3!8va(! x!8va)! x4/3 | %164
 x5/3!8va(! x!8va)! x4/3 | x5/3!8va(! x!8va)! x4/3 | x5/3!8va(! x!8va)! x4/3 | %167
 x5/3!8va(! x!8va)! x4/3 | x5/3!8va(! x!8va)! x4/3 | x5/3!8va(! x!8va)! x4/3 | %170
 x4/3!8va(! x2/3!8va)! x4/3!8va(! x2/3!8va)! | x!8va(! (9:6:9^c'/=c'/=b/_b/a/^g/=g/^f/=f/!8va)! | %172
 e x2 x | x (9:6:9^c/=c/=B/_B/A/^G/=G/^F/=F/ | E x2 x | x4 | x!8va(! x3 | x4 | x4 | x3!8va)! x | %180
 x4 | x2 [F,=B,]2 x8 x4[K:bass] (3x2 x2 [F,_A,]2 | _G,4 | F,4 | [_E,B,]4 | [_E,_A,]7/2 [F,A,]/ | %186
[M:4/4] [F,_A,] x x2 x4 | x4[K:treble] x4 | x2 x2 x4 | x8 | x8 | x8 | x8 | x8 | x8 || %195
[K:D] !^!A,6 x3/2 A,/ | !^!B,6 x3/2 B,/ | !^![F,F]4 !^![A,A]3 x/ [A,DFA]/ | !^![A,DFA]8!8va(! | %199
 x7!8va)! x | x8 | x8 | x7/2[K:bass] x9/2 | x8 | x2[K:treble] x4!8va(! x2!8va)! | x8 |] %206
V:8
 x2!8va(! x5!8va)! x | x8 | x8 | x8 | x8 |[K:bass] x10[K:treble] x2 | x11!8va(! x | %7
 x22/5!8va)! x23/5 | x8 | x8 | x8 | x8 | x8 | x8 | x8 | x8 | x8 | x8 | x8 | x8 | x8 | x8 | x8 | %23
 x8 | (3x2!8va(! ^c'2 e'2 (3g'2 b'2 =b'2 | x8 | x!8va)! x15 | x16 | x8!8va(! x8 | x15!8va)! x3 | %30
 x12 | x12 ||[M:4/4] x8 | x8 | x8 | x8 | x8 | x8 | x8 | x8 | x8 | x8 | x8 | x8 | x8 | x8 | x8 | %47
 x8 | x16/3!8va(! x5/3!8va)! x | x16/3!8va(! x5/3!8va)! x | x16/3!8va(! x5/3!8va)! x | x8 | %52
 x16/3!8va(! x5/3!8va)! x | x16/3!8va(! x5/3!8va)! x | x16/3!8va(! x5/3!8va)! x | x8 | %56
 x4/3!8va(! x14/3!8va)! x2 | x8 | x20/3!8va(! x43/32 | x8 | x2!8va)! x10 |[K:bass] x12 | %62
 x21/2[K:treble] x11/2 | x12[K:bass] x12 ||[K:Bb][K:treble] x10/3!8va(! x2!8va)! x8/3 | %65
 x10/3!8va(! x2!8va)! x8/3 | x10/3!8va(! x2!8va)! x8/3 | x10/3!8va(! x2!8va)! x8/3 | %68
 x10/3!8va(! x2!8va)! x8/3 | x10/3!8va(! x2!8va)! x8/3 | x10/3!8va(! x2!8va)! x8/3 | %71
 x10/3!8va(! x2!8va)! x8/3 | x10/3!8va(! x2!8va)! x8/3 | x10/3!8va(! x2!8va)! x8/3 | %74
 x10/3!8va(! x2!8va)! x8/3 | x10/3!8va(! x2!8va)! x8/3 | x10/3!8va(! x2!8va)! x8/3 | %77
 x10/3!8va(! x2!8va)! x8/3 | x14/3!8va(! x10/3!8va)! | x10/3!8va(! x10/3!8va)! x4/3 | %80
 x6[K:bass] x5 |[K:treble] x4 || x4 | x8 | x8 | x8 | x8 | x8 | x8 | x4!8va(! x4 | x8 | x8 | x8 | %93
 x8 | x8!8va)! | x8 | x8 | x8 |!8va(! x8 | x8 | x8 | x4!8va)! x4 | x8 | x8 | x8 | x8 | x8 | %107
 x4[K:bass] x4 | x8 | x8 |[K:treble] x8 | x8 | x8 | x8 | x8 | x4!8va(! x4 | x12!8va)! | x26 || %118
[K:F][M:6/8] x6 | x6 | x6 | x6 | x6 | x6 | x6 | x6 | x6 | x6 | x6 | x6 | x6 | x6 | x6 | x6 | %134
 x3/2!8va(! x/!8va)! x/!8va(! x/!8va)! x/!8va(! x/!8va)! x/!8va(! x/!8va)!!8va(! x | x6 | x6 | %137
 x!8va)! x5 | x6 | x6 ||[M:2/4] x4 | x4 | x4 | x4 | x4 | x4 | x4 | x4 | x4 | x4 | x4 | x4 | x4 | %153
 x4 | x4 | x4 | x4 | x4 | x4 | x4 | x4 | x4 | x4 | x5/3!8va(! x!8va)! x4/3 | %164
 x5/3!8va(! x!8va)! x4/3 | x5/3!8va(! x!8va)! x4/3 | x5/3!8va(! x!8va)! x4/3 | %167
 x5/3!8va(! x!8va)! x4/3 | x5/3!8va(! x!8va)! x4/3 | x5/3!8va(! x!8va)! x4/3 | %170
 x4/3!8va(! x2/3!8va)! x4/3!8va(! x2/3!8va)! | x!8va(! x3!8va)! | x4 | x4 | x4 | x4 | x!8va(! x3 | %177
 x4 | x4 | x3!8va)! x | x4 | x16[K:bass] x4 | x4 | x4 | x4 | x4 |[M:4/4] x8 | x4[K:treble] x4 | %188
 x8 | x8 | x8 | x8 | x8 | x8 | x8 ||[K:D] x8 | x8 | x3/2!8va(! x3/2!8va)! x5/2!8va(! x3/2!8va)! x | %198
 x7/2!8va(! x9/2 | x7!8va)! x | x8 | x8 | x7/2[K:bass] x9/2 | x8 | x2[K:treble] x4!8va(! x2!8va)! | %205
 x8 |] %206

